assets/images/main_section/mail.svg

<svg width="24" height="24" viewBox="0 0 24 24" fill="none" xmlns="http://www.w3.org/2000/svg">
<path fill-rule="evenodd" clip-rule="evenodd" d="M7.4 5H16.6C17.7531 5 18.4977 5.00156 19.0643 5.04785C19.6077 5.09225 19.8091 5.1676 19.908 5.21799C20.2843 5.40973 20.5903 5.71569 20.782 6.09202C20.8324 6.19091 20.9078 6.39235 20.9521 6.93567C20.9984 7.50235 21 8.24689 21 9.4V14.6C21 15.7531 20.9984 16.4977 20.9521 17.0643C20.9078 17.6077 20.8324 17.8091 20.782 17.908C20.5903 18.2843 20.2843 18.5903 19.908 18.782C19.8091 18.8324 19.6077 18.9078 19.0643 18.9521C18.4977 18.9984 17.7531 19 16.6 19H7.4C6.24689 19 5.50235 18.9984 4.93567 18.9521C4.39235 18.9078 4.19091 18.8324 4.09202 18.782C3.71569 18.5903 3.40973 18.2843 3.21799 17.908C3.1676 17.8091 3.09225 17.6077 3.04785 17.0643C3.00156 16.4977 3 15.7531 3 14.6V9.4C3 8.24689 3.00156 7.50235 3.04785 6.93567C3.09225 6.39235 3.1676 6.19091 3.21799 6.09202C3.40973 5.71569 3.71569 5.40973 4.09202 5.21799C4.19091 5.1676 4.39235 5.09225 4.93567 5.04785C5.50235 5.00156 6.24689 5 7.4 5ZM1 9.4C1 7.15979 1 6.03969 1.43597 5.18404C1.81947 4.43139 2.43139 3.81947 3.18404 3.43597C4.03969 3 5.15979 3 7.4 3H16.6C18.8402 3 19.9603 3 20.816 3.43597C21.5686 3.81947 22.1805 4.43139 22.564 5.18404C23 6.03969 23 7.15979 23 9.4V14.6C23 16.8402 23 17.9603 22.564 18.816C22.1805 19.5686 21.5686 20.1805 20.816 20.564C19.9603 21 18.8402 21 16.6 21H7.4C5.15979 21 4.03969 21 3.18404 20.564C2.43139 20.1805 1.81947 19.5686 1.43597 18.816C1 17.9603 1 16.8402 1 14.6V9.4ZM6.5547 7.16795C6.09517 6.8616 5.4743 6.98577 5.16795 7.4453C4.8616 7.90483 4.98577 8.5257 5.4453 8.83205L11.4453 12.8321C11.7812 13.056 12.2188 13.056 12.5547 12.8321L18.5547 8.83205C19.0142 8.5257 19.1384 7.90483 18.8321 7.4453C18.5257 6.98577 17.9048 6.8616 17.4453 7.16795L12 10.7981L6.5547 7.16795Z" fill="white"/>
</svg>

<svg width="24" height="24" fill="none" xmlns="http://www.w3.org/2000/svg"><path fill-rule="evenodd" clip-rule="evenodd" d="M7.4 5h9.2c1.153 0 1.898.002 2.464.048.544.044.745.12.844.17a2 2 0 0 1 .874.874c.05.099.126.3.17.844.046.566.048 1.31.048 2.464v5.2c0 1.153-.002 1.898-.048 2.464-.044.544-.12.745-.17.844a2 2 0 0 1-.874.874c-.099.05-.3.126-.844.17-.566.046-1.31.048-2.464.048H7.4c-1.153 0-1.898-.002-2.464-.048-.544-.044-.745-.12-.844-.17a2 2 0 0 1-.874-.874c-.05-.099-.126-.3-.17-.844C3.002 16.498 3 15.754 3 14.6V9.4c0-1.153.002-1.898.048-2.464.044-.544.12-.745.17-.844a2 2 0 0 1 .874-.874c.099-.05.3-.126.844-.17C5.502 5.002 6.246 5 7.4 5zM1 9.4c0-2.24 0-3.36.436-4.216a4 4 0 0 1 1.748-1.748C4.04 3 5.16 3 7.4 3h9.2c2.24 0 3.36 0 4.216.436a4 4 0 0 1 1.748 1.748C23 6.04 23 7.16 23 9.4v5.2c0 2.24 0 3.36-.436 4.216a4 4 0 0 1-1.748 1.748C19.96 21 18.84 21 16.6 21H7.4c-2.24 0-3.36 0-4.216-.436a4 4 0 0 1-1.748-1.748C1 17.96 1 16.84 1 14.6V9.4zm5.555-2.232a1 1 0 0 0-1.11 1.664l6 4a1 1 0 0 0 1.11 0l6-4a1 1 0 0 0-1.11-1.664L12 10.798l-5.445-3.63z" fill="#fff"/></svg>
